X: 1
T: Schottis
O: A.13
R: shottish
Z: 2017 John Chambers <jc:trillian.mit.edu>
S: handwritten MS of unknown origin, labelled "A.13".
M: 2/4
L: 1/16
K: Dm
|:\
"A7"A=B^cd e2ef | "D"d2de "A7"^c2c2 |\
[1,2 "A7"A=B^cd e2ef | "Gm"g2fg "A7"a4 :|\
[3,4 "Dm"defg "A7"age^c | "(Dm)"d2{e}d^c "Dm"d4 :|
|:\
"A7"agef g2g2 | "Dm"afde f2f2 | "A7"e^cAc ecAc |\
[1,2 "Dm"defg "(A7)"a4 :|3,4 "(Dm)"d2{e}d^c "Dm"d4 :|
